public/mascot_sad.svg

<svg width="80" height="80" viewBox="0 0 80 80" fill="none" xmlns="http://www.w3.org/2000/svg">
<path d="M80 14C79.8333 7.33333 76.3167 4 69.45 4H10.5C3.66667 4 0.166667 7.33333 0 14V69.95C0.166667 76.65 3.66667 80 10.5 80H69.45C76.3167 80 79.8333 76.65 80 69.95V14Z" fill="url(#paint0_linear_4_13785)"/>
<path d="M80 10.5C80 3.5 76.4833 0 69.45 0H10.5C3.5 0 0 3.5 0 10.5V14C0.166667 7.33333 3.66667 4 10.5 4H69.45C76.3167 4 79.8333 7.33333 80 14V10.5Z" fill="url(#paint1_linear_4_13785)"/>
<path d="M25.1615 33.5669C22.3948 33.5669 20.0448 34.5502 18.1115 36.5169C16.1448 38.4836 15.1615 40.8336 15.1615 43.5669C15.1615 46.3336 16.1448 48.6836 18.1115 50.6169C20.0448 52.5836 22.3948 53.5669 25.1615 53.5669C27.9282 53.5669 30.2782 52.5836 32.2115 50.6169C34.1782 48.6836 35.1615 46.3336 35.1615 43.5669C35.1615 40.8336 34.1782 38.4836 32.2115 36.5169C30.2782 34.5502 27.9282 33.5669 25.1615 33.5669Z" fill="white"/>
<path d="M25.1615 37.5669C23.5282 37.5669 22.1282 38.1669 20.9615 39.3669C19.7615 40.5336 19.1615 41.9336 19.1615 43.5669C19.1615 45.2336 19.7615 46.6502 20.9615 47.8169C22.1282 48.9836 23.5282 49.5669 25.1615 49.5669C26.8282 49.5669 28.2448 48.9836 29.4115 47.8169C30.5782 46.6502 31.1615 45.2336 31.1615 43.5669C31.1615 41.9336 30.5782 40.5336 29.4115 39.3669C28.2448 38.1669 26.8282 37.5669 25.1615 37.5669Z" fill="#3D465D"/>
<path d="M55.1615 33.5669C52.3948 33.5669 50.0448 34.5502 48.1115 36.5169C46.1448 38.4836 45.1615 40.8336 45.1615 43.5669C45.1615 46.3336 46.1448 48.6836 48.1115 50.6169C50.0448 52.5836 52.3948 53.5669 55.1615 53.5669C57.9282 53.5669 60.2782 52.5836 62.2115 50.6169C64.1782 48.6836 65.1615 46.3336 65.1615 43.5669C65.1615 40.8336 64.1782 38.4836 62.2115 36.5169C60.2782 34.5502 57.9282 33.5669 55.1615 33.5669Z" fill="white"/>
<path d="M55.1615 37.5669C53.5282 37.5669 52.1282 38.1669 50.9615 39.3669C49.7615 40.5336 49.1615 41.9336 49.1615 43.5669C49.1615 45.2336 49.7615 46.6502 50.9615 47.8169C52.1282 48.9836 53.5282 49.5669 55.1615 49.5669C56.8282 49.5669 58.2448 48.9836 59.4115 47.8169C60.5782 46.6502 61.1615 45.2336 61.1615 43.5669C61.1615 41.9336 60.5782 40.5336 59.4115 39.3669C58.2448 38.1669 56.8282 37.5669 55.1615 37.5669Z" fill="#3D465D"/>
<path d="M12.5115 26.2667C11.9449 26.4 11.5449 26.7 11.3115 27.1667C11.0115 27.6333 10.9282 28.15 11.0615 28.7167L12.1115 32.5667C12.2449 33.1333 12.5615 33.5333 13.0615 33.7667C13.4949 34.0667 13.9949 34.15 14.5615 34.0167L33.8615 28.8167C34.3949 28.6833 34.8115 28.3667 35.1115 27.8667C35.3782 27.4333 35.4449 26.9333 35.3115 26.3667L34.2615 22.5167C34.1282 21.95 33.8282 21.5333 33.3615 21.2667C32.8615 21 32.3449 20.9333 31.8115 21.0667L12.5115 26.2667Z" fill="#3D465D"/>
<path d="M48.5115 21.0667C47.9782 20.9333 47.4615 21 46.9615 21.2667C46.4948 21.5333 46.1948 21.95 46.0615 22.5167L45.0115 26.3667C44.8782 26.9333 44.9448 27.4333 45.2115 27.8667C45.5115 28.3667 45.9282 28.6833 46.4615 28.8167L65.7615 34.0167C66.3282 34.15 66.8282 34.0667 67.2615 33.7667C67.7615 33.5333 68.0782 33.1333 68.2115 32.5667L69.2615 28.7167C69.3948 28.15 69.3115 27.6333 69.0115 27.1667C68.7782 26.7 68.3782 26.4 67.8115 26.2667L48.5115 21.0667Z" fill="#3D465D"/>
<path d="M49.5115 59.0669C49.1448 58.7669 48.7615 58.4669 48.3615 58.1669C46.0948 56.4336 43.3615 55.5669 40.1615 55.5669C36.8948 55.5669 34.1115 56.4336 31.8115 58.1669C31.8115 58.2002 31.7948 58.2169 31.7615 58.2169C31.3282 58.5502 30.9615 58.9002 30.6615 59.2669C30.2948 59.6669 30.1282 60.1502 30.1615 60.7169C30.1948 61.2502 30.4282 61.7002 30.8615 62.0669C31.2615 62.4336 31.7448 62.6002 32.3115 62.5669C32.8448 62.5336 33.2948 62.3169 33.6615 61.9169C33.8282 61.7169 34.0115 61.5336 34.2115 61.3669C35.8448 60.1669 37.8282 59.5669 40.1615 59.5669C42.4282 59.5669 44.3615 60.1669 45.9615 61.3669L46.0115 61.4169C46.3115 61.6169 46.5948 61.8336 46.8615 62.0669C47.2615 62.4336 47.7448 62.6002 48.3115 62.5669C48.8448 62.5336 49.2948 62.3169 49.6615 61.9169C50.0282 61.4836 50.1948 61.0002 50.1615 60.4669C50.1282 59.9002 49.9115 59.4336 49.5115 59.0669Z" fill="#3D465D"/>
<defs>
<linearGradient id="paint0_linear_4_13785" x1="40" y1="-1.09798e-07" x2="40" y2="80" gradientUnits="userSpaceOnUse">
<stop stop-color="#FFCD59"/>
<stop offset="1" stop-color="#F7A41B"/>
</linearGradient>
<linearGradient id="paint1_linear_4_13785" x1="39.75" y1="-0.25" x2="39.75" y2="43.25" gradientUnits="userSpaceOnUse">
<stop stop-color="#FFE383"/>
<stop offset="1" stop-color="#FFB43C"/>
</linearGradient>
</defs>
</svg>

<?xml version="1.0" encoding="UTF-8"?>
<svg id="Camada_1" data-name="Camada 1" xmlns="http://www.w3.org/2000/svg" xmlns:xlink="http://www.w3.org/1999/xlink" viewBox="0 0 80 80">
  <defs>
    <style>
      .cls-1 {
        fill: #3d465d;
      }

      .cls-1, .cls-2 {
        stroke-width: 0px;
      }

      .cls-2 {
        fill: #fff;
      }
    </style>
  </defs>
  <image width="80" height="80" xlink:href="../../../../STUFF/kenney_shape-characters/PNG/Default/blue_body_square.png"/>
  <path class="cls-2" d="M25.16,33.57c-2.77,0-5.12.98-7.05,2.95-1.97,1.97-2.95,4.32-2.95,7.05s.98,5.12,2.95,7.05c1.93,1.97,4.28,2.95,7.05,2.95s5.12-.98,7.05-2.95c1.97-1.93,2.95-4.28,2.95-7.05s-.98-5.08-2.95-7.05c-1.93-1.97-4.28-2.95-7.05-2.95Z"/>
  <path class="cls-1" d="M25.16,37.57c-1.63,0-3.03.6-4.2,1.8-1.2,1.17-1.8,2.57-1.8,4.2s.6,3.08,1.8,4.25c1.17,1.17,2.57,1.75,4.2,1.75s3.08-.58,4.25-1.75c1.17-1.17,1.75-2.58,1.75-4.25s-.58-3.03-1.75-4.2c-1.17-1.2-2.58-1.8-4.25-1.8Z"/>
  <path class="cls-2" d="M55.16,33.57c-2.77,0-5.12.98-7.05,2.95-1.97,1.97-2.95,4.32-2.95,7.05s.98,5.12,2.95,7.05c1.93,1.97,4.28,2.95,7.05,2.95s5.12-.98,7.05-2.95c1.97-1.93,2.95-4.28,2.95-7.05s-.98-5.08-2.95-7.05c-1.93-1.97-4.28-2.95-7.05-2.95Z"/>
  <path class="cls-1" d="M55.16,37.57c-1.63,0-3.03.6-4.2,1.8-1.2,1.17-1.8,2.57-1.8,4.2s.6,3.08,1.8,4.25c1.17,1.17,2.57,1.75,4.2,1.75s3.08-.58,4.25-1.75c1.17-1.17,1.75-2.58,1.75-4.25s-.58-3.03-1.75-4.2c-1.17-1.2-2.58-1.8-4.25-1.8Z"/>
  <path class="cls-1" d="M12.51,26.27c-.57.13-.97.43-1.2.9-.3.47-.38.98-.25,1.55l1.05,3.85c.13.57.45.97.95,1.2.43.3.93.38,1.5.25l19.3-5.2c.53-.13.95-.45,1.25-.95.27-.43.33-.93.2-1.5l-1.05-3.85c-.13-.57-.43-.98-.9-1.25-.5-.27-1.02-.33-1.55-.2l-19.3,5.2Z"/>
  <path class="cls-1" d="M48.51,21.07c-.53-.13-1.05-.07-1.55.2-.47.27-.77.68-.9,1.25l-1.05,3.85c-.13.57-.07,1.07.2,1.5.3.5.72.82,1.25.95l19.3,5.2c.57.13,1.07.05,1.5-.25.5-.23.82-.63.95-1.2l1.05-3.85c.13-.57.05-1.08-.25-1.55-.23-.47-.63-.77-1.2-.9l-19.3-5.2Z"/>
  <path class="cls-1" d="M49.51,59.07c-.37-.3-.75-.6-1.15-.9-2.27-1.73-5-2.6-8.2-2.6s-6.05.87-8.35,2.6c0,.03-.02.05-.05.05-.43.33-.8.68-1.1,1.05-.37.4-.53.88-.5,1.45.03.53.27.98.7,1.35.4.37.88.53,1.45.5.53-.03.98-.25,1.35-.65.17-.2.35-.38.55-.55,1.63-1.2,3.62-1.8,5.95-1.8s4.2.6,5.8,1.8l.05.05c.3.2.58.42.85.65.4.37.88.53,1.45.5.53-.03.98-.25,1.35-.65.37-.43.53-.92.5-1.45-.03-.57-.25-1.03-.65-1.4Z"/>
</svg>
